X:1
T:Title
%%score { ( 1 2 ) | ( 3 4 ) }
L:1/8
M:9/8
K:Ab
V:1 treble nm="Grand Piano"
V:2 treble 
V:3 bass 
V:4 bass 
V:1
 z3 z2[Q:1/4=100] [CE] z E[CA] | [Ec]3- [Ec]2 [=EG] BAF | [CE]6 [EA]3 | B3- B2 E [EA]2 [EB] | %4
[M:5/8] [Ec]-[Ec]- [Ec]3 |[M:2/4] .[CE]2 E[CA] |[M:9/8] [Ec]3- [Ec]2 [=EG] BAF | E6 A2 c | %8
 [DFB]3- [DFB]2 [CFB] [CEA]2 [B,DG] |[M:5/8] [CA]-[CA]- [CA]3 |[M:2/4] [Ec] [=Ec]2 [EB] | %11
[M:9/8] [FA]3- [FA]2 [_GB] [FA]2 [DF] | [CE]6 [EA]3 | B3- B2 E [EA]2 [EB] | %14
[M:5/8] [Ec]-[Ec]- [Ec]3 |[M:2/4] .[CE]2 E[CA] |[M:9/8] [Ec]3- [Ec]2 [=EG] .[FB]2 [A,DF] | %17
 z3 z3 .[CA]3 | [Ge]3- [Ge]2 [Ge] [DEG]2 [DEG] |[M:5/8] [CEA]-[CEA]- [CEA]3 |] %20
V:2
 z3 z3 .C3 | z3 z3 .F3 | x9 | x9 |[M:5/8] x5 |[M:2/4] z .C3 |[M:9/8] z3 z3 .F3 | x9 | x9 | %9
[M:5/8] x5 |[M:2/4] x4 |[M:9/8] x9 | x9 | x9 |[M:5/8] x5 |[M:2/4] z .C3 |[M:9/8] x9 | %17
 [A,CE]6 E2- [Ec] | x9 |[M:5/8] x5 |] %20
V:3
 z3 z2 [A,,A,] [A,,A,]2 [A,,A,] | [A,,A,]3- [A,,A,]2 [C,B,] [D,A,]2 [D,A,D] | [A,,A,]6 [C,A,]3 | %3
 [E,G,E]3- [E,G,E]2 [D,G,] [C,A,]2 [B,,G,] |[M:5/8] [A,,A,]-[A,,A,]- [A,,A,]3 | %5
[M:2/4] [A,,A,] [A,,A,]2 [A,,A,] |[M:9/8] [A,,A,]3- [A,,A,]2 [C,B,] [D,A,]2 [D,A,D] | z3 z3 E3 | %8
 D,3- D,2 E, E,2 E, |[M:5/8] [A,,A,]-[A,,A,]- [A,,A,]3 |[M:2/4] [A,,A,] [C,G,]2 [C,C] | %11
[M:9/8] [F,C]3- [F,C]2 [C,A,] [D,A,]2 [D,A,] | [A,,A,]6 [C,A,]3 | %13
 [E,G,E]3- [E,G,E]2 [D,G,] [C,A,]2 [B,,G,] |[M:5/8] [A,,A,]-[A,,A,]- [A,,A,]3 | %15
[M:2/4] [A,,A,] [A,,A,]2 [A,,A,] |[M:9/8] [A,,A,]3- [A,,A,]2 [C,B,] z AD, | A,,6 A,2 A, | %18
 [E,B,]3- [E,B,]2 [E,B,] E,2 E, |[M:5/8] A,,-A,,- A,,3 |] %20
V:4
 x9 | x9 | x9 | x9 |[M:5/8] x5 |[M:2/4] x4 |[M:9/8] x9 | [A,C]6 [A,C]2 A, | x9 |[M:5/8] x5 | %10
[M:2/4] x4 |[M:9/8] x9 | x9 | x9 |[M:5/8] x5 |[M:2/4] x4 |[M:9/8] z3 z3 .[D,A,]3 | x9 | x9 | %19
[M:5/8] x5 |] %20

